X: 57
T:A Chesheire Round
M:3/2
L:1/8
S:Wright 1713
Z:p
K:G
d2cB AB c2Bcd2|E2A4G2F2ED|d2cB efg2fga2|D2G4A2B2AG||!
gfga b2aga2gf|g2e4a2f2ed|gfga babg agaf|g2G4B2A2G2||!
ABcA BcdB cdec|c2E4A2F2ED|e2g2f2d2efge|g2G4B2A2G2||!
C2E2D2F2E2G2|cdec EFGEF2D2|G,2B,2A,2C2B,2D2|Bcd2ABc2B2G2||
